X: 1
T: Sl\"angpolska efter Juringius  [Em]
T: Polon\"as ur Sexdregasamlingen
T: Sl\"angpolska fr\aan Kalmar
%D:1693
C: Sweden 1693
C: arr. Bronwyn
A: Sm\aaland
R: sl\"angpolska
S: http://archive.folx.org/tune/polska/slangpolska-efter-juringius-87
K: Em
M: 3/4
L: 1/8
% = = = = = = = = = =
V: 1 staves=3
"^Riff"|: B>B EB EB "^A"::\
"Em"B2 EB EB | "Am"~c>B AB cd |\
"D"A2 DA DA | "G"B>A GA Bc |\
"Em"B2 AG "D"F>E | (D/E/)F/D/ "Em"E4 :|
"^B"|:\
"Bm"~F>F B,F B,F | "Em"~G>F EF GA |\
"Bm"~F>F B,F B,F | "Em"~G>F EF GA |\
"D"A2 DA DA | "G"B>A GA Bc |\
"Em"B2 AG "D"F>E | (D/E/)F/D/ "Em"E4 :|
% = = = = = = = = = =
V: 2
"^Riff"|: G>G EG EG "^A":: "Em"G2 B,G B,G | G>F EF GA |\
F2 A,F A,F | G>F EF GA | G2 FE D>D | DC B,4 :|
"^B"|: [D6B,6] | [E6B,6] |  [D6B,6] | [E6B,6] |\
D>DFD FD | G>F EF GA | G2 FE D>D | DC B,4 :|
% = = = = = = = = = =
V: 3
"^Riff"|: D>D DD DD "^A":: G,6 | A,2 D2 A,2 |\
A,6 | B,2 G,A, B,2 | B,2 C2 A,2 | A,2 G,4 :|
"^B"|:\
B,2 D2 B,2 | B,2 G,2 B,2 | B,2 D2 B,2 | B,2 E2 B,2 |\
F4 D2 | E6 | B,2 C2 A,2 | A,2 G,4 :|
% = = = = = = = = = =
